outputs/icons/navigation/cancel_outline_sharp.svg

<svg xmlns="http://www.w3.org/2000/svg" width="1200" height="1200" fill="none"><g clip-path="url(#a)"><path fill="#000" d="M729.5 400 600 529.5 470.5 400 400 470.5 529.5 600 400 729.5l70.5 70.5L600 670.5 729.5 800l70.5-70.5L670.5 600 800 470.5zM600 100c-276.5 0-500 223.5-500 500s223.5 500 500 500 500-223.5 500-500-223.5-500-500-500m0 900c-220.5 0-400-179.5-400-400s179.5-400 400-400 400 179.5 400 400-179.5 400-400 400"/></g><defs><clipPath id="a"><path fill="#fff" d="M0 0h1200v1200H0z"/></clipPath></defs></svg>

<svg width="1200" height="1200" viewBox="0 0 1200 1200" fill="none" xmlns="http://www.w3.org/2000/svg"><g clip-path="url(#clip0_117_780)"><path d="M729.5 400L600 529.5L470.5 400L400 470.5L529.5 600L400 729.5L470.5 800L600 670.5L729.5 800L800 729.5L670.5 600L800 470.5L729.5 400ZM600 100C323.5 100 100 323.5 100 600C100 876.5 323.5 1100 600 1100C876.5 1100 1100 876.5 1100 600C1100 323.5 876.5 100 600 100ZM600 1000C379.5 1000 200 820.5 200 600C200 379.5 379.5 200 600 200C820.5 200 1000 379.5 1000 600C1000 820.5 820.5 1000 600 1000Z" fill="#1D1E23"/></g><defs><clipPath id="clip0_117_780"><path width="24" fill="white" d="M0 0H1200V1200H0V0z"/></clipPath></defs></svg>
